assets/icons/qvision/electric_rickshaw.svg

<svg xmlns="http://www.w3.org/2000/svg" enable-background="new 0 0 24 24" height="24" viewBox="0 0 24 24" width="24"><g><rect fill="none" height="24" width="24"/></g><g><path d="M21,11.18V9.72c0-0.47-0.16-0.92-0.46-1.28L16.6,3.72C16.22,3.26,15.66,3,15.06,3H3C1.9,3,1,3.9,1,5v8c0,1.1,0.9,2,2,2 h0.18C3.6,16.16,4.7,17,6,17s2.4-0.84,2.82-2h8.37c0.41,1.16,1.51,2,2.82,2c1.66,0,3-1.34,3-3C23,12.7,22.16,11.6,21,11.18z M18.4,9H16V6.12L18.4,9z M3,5h4v4H3V5z M6,15c-0.55,0-1-0.45-1-1s0.45-1,1-1s1,0.45,1,1S6.55,15,6,15z M9,13v-2h3V9H9V5h5v8H9z M20,15c-0.55,0-1-0.45-1-1s0.45-1,1-1s1,0.45,1,1S20.55,15,20,15z"/><polygon points="7,20 11,20 11,18 17,21 13,21 13,23"/></g></svg>

<svg width="24" height="24" viewBox="0 0 24 24" fill="none" xmlns="http://www.w3.org/2000/svg">
<g clip-path="url(#clip0_147_5273)">
<path d="M21 11.18V9.72C21 9.25 20.84 8.8 20.54 8.44L16.6 3.72C16.22 3.26 15.66 3 15.06 3H3C1.9 3 1 3.9 1 5V13C1 14.1 1.9 15 3 15H3.18C3.6 16.16 4.7 17 6 17C7.3 17 8.4 16.16 8.82 15H17.19C17.6 16.16 18.7 17 20.01 17C21.67 17 23.01 15.66 23.01 14C23 12.7 22.16 11.6 21 11.18ZM18.4 9H16V6.12L18.4 9ZM3 5H7V9H3V5ZM6 15C5.45 15 5 14.55 5 14C5 13.45 5.45 13 6 13C6.55 13 7 13.45 7 14C7 14.55 6.55 15 6 15ZM9 13V11H12V9H9V5H14V13H9ZM20 15C19.45 15 19 14.55 19 14C19 13.45 19.45 13 20 13C20.55 13 21 13.45 21 14C21 14.55 20.55 15 20 15Z" fill="#323232"/>
<path d="M7 20H11V18L17 21H13V23L7 20Z" fill="#323232"/>
</g>
<defs>
<clipPath id="clip0_147_5273">
<rect width="24" height="24" fill="white"/>
</clipPath>
</defs>
</svg>
